icons/skype.svg

<svg width="24" height="24" viewBox="0 0 24 24" xmlns="http://www.w3.org/2000/svg">
    <path fill-rule="evenodd"
        d="M7.73138 2C6.1474 2 4.71331 2.6477 3.6783 3.68884C2.64148 4.73179 2 6.17415 2 7.76379C2 8.7423 2.24435 9.63174 2.67827 10.742C2.61369 11.1894 2.58138 11.6457 2.58138 12.1072C2.58138 14.7352 3.64137 17.1176 5.35471 18.8409C7.06639 20.5626 9.43517 21.631 12.0514 21.631C12.2735 21.631 12.4963 21.623 12.7295 21.6146H12.7296L12.8934 21.6088C13.1389 21.6004 13.4203 21.5925 13.7733 21.591C14.5543 21.991 15.4378 22.2152 16.3707 22.2152C17.955 22.2152 19.3895 21.5677 20.4249 20.5264C21.4619 19.4836 22.1034 18.0412 22.1034 16.4514C22.1034 15.4719 21.8573 14.5822 21.4244 13.475C21.4883 13.028 21.5214 12.5712 21.5214 12.1072C21.5214 9.47953 20.4615 7.09743 18.7481 5.37434C17.0365 3.65295 14.6678 2.58483 12.0514 2.58483C11.83 2.58483 11.6078 2.59268 11.375 2.60091L11.2099 2.60665C10.9643 2.61489 10.6827 2.62268 10.3294 2.62408C9.54845 2.22392 8.66441 2 7.73138 2ZM11.9667 6.66669C11.2349 6.66669 10.2866 6.78415 9.48365 7.22213C8.61648 7.69513 7.93333 8.54719 7.93333 9.83335C7.93333 10.4516 8.09902 11.0105 8.47678 11.4669C8.83718 11.9023 9.31314 12.1491 9.75299 12.3093C10.1899 12.4684 10.6816 12.5727 11.1421 12.6643C11.2332 12.6824 11.3239 12.7002 11.4145 12.718L11.4145 12.718C11.8037 12.7942 12.1894 12.8698 12.5908 12.9702C13.4588 13.1872 13.7489 13.3548 13.8596 13.4655C13.9024 13.5083 14 13.6085 14 14.1667C14 14.4415 13.8769 14.6964 13.5599 14.9183C13.2235 15.1537 12.6789 15.3334 11.9667 15.3334C10.9788 15.3334 10.3556 14.9331 9.96544 14.5429C9.76415 14.3416 9.62283 14.1396 9.53354 13.9907C9.4893 13.917 9.45915 13.8585 9.44183 13.8229C9.4332 13.8051 9.42788 13.7933 9.42568 13.7883L9.42502 13.7868C9.21689 13.2798 8.63854 13.0342 8.12861 13.2382C7.61583 13.4433 7.36641 14.0253 7.57152 14.5381L7.57191 14.539L7.57232 14.5401L7.5732 14.5422L7.57523 14.5472L7.58037 14.5596C7.58428 14.5689 7.58916 14.5804 7.59505 14.5938C7.60683 14.6205 7.62266 14.6552 7.64281 14.6967C7.68304 14.7795 7.7409 14.8903 7.81855 15.0197C7.973 15.2771 8.21085 15.6168 8.55123 15.9571C9.24439 16.6503 10.3545 17.3334 11.9667 17.3334C12.9878 17.3334 13.9598 17.0797 14.7068 16.5568C15.4731 16.0203 16 15.1918 16 14.1667C16 13.4249 15.8809 12.6584 15.2738 12.0512C14.7344 11.5119 13.9412 11.2462 13.0759 11.0299C12.6194 10.9158 12.1725 10.8283 11.7808 10.7516C11.6952 10.7349 11.6122 10.7186 11.5323 10.7028C11.0645 10.6097 10.7125 10.5302 10.4372 10.43C10.1648 10.3308 10.0599 10.2429 10.0175 10.1916C9.9924 10.1613 9.93333 10.0818 9.93333 9.83335C9.93333 9.38618 10.1169 9.15491 10.4414 8.97792C10.8301 8.76589 11.3984 8.66669 11.9667 8.66669C12.7572 8.66669 13.2878 8.97524 13.6315 9.28076C13.8075 9.43726 13.9343 9.59365 14.0147 9.7072C14.0545 9.76344 14.0818 9.80744 14.097 9.83323C14.1043 9.84565 14.1087 9.85366 14.1103 9.85656C14.3601 10.3437 14.9564 10.5399 15.4472 10.2944C15.9412 10.0475 16.1414 9.44678 15.8944 8.95281L15.894 8.95191L15.8935 8.95098L15.8925 8.94898L15.8902 8.94449L15.8846 8.93358C15.8804 8.92546 15.8752 8.91565 15.869 8.90427C15.8567 8.88152 15.8404 8.85241 15.8201 8.81785C15.7794 8.74885 15.722 8.65744 15.6468 8.55117C15.497 8.33972 15.2716 8.06278 14.9602 7.78594C14.3289 7.2248 13.3428 6.66669 11.9667 6.66669Z" />
</svg>

<svg xmlns="http://www.w3.org/2000/svg" width="24" height="24" viewBox="0 0 24 24">
    <path
        d="M7.731 2c-1.584 0-3.018.648-4.053 1.689C2.641 4.732 2 6.174 2 7.764c0 .978.244 1.868.678 2.978-.064.447-.097.904-.097 1.365 0 2.628 1.06 5.01 2.774 6.734 1.711 1.722 4.08 2.79 6.696 2.79.223 0 .445-.008.678-.016l.164-.006c.246-.009.527-.017.88-.018.781.4 1.665.624 2.598.624 1.584 0 3.019-.647 4.054-1.689 1.037-1.042 1.678-2.485 1.678-4.075 0-.98-.246-1.869-.679-2.976.064-.447.097-.904.097-1.368 0-2.627-1.06-5.01-2.773-6.733-1.712-1.721-4.08-2.79-6.697-2.79-.221 0-.443.009-.676.017l-.165.006c-.246.008-.527.016-.88.017C9.547 2.224 8.663 2 7.73 2zm4.236 4.667c-.732 0-1.68.117-2.483.555-.868.473-1.55 1.325-1.55 2.611 0 .619.165 1.178.543 1.634.36.435.836.682 1.276.842.437.16.929.264 1.39.355l.271.054c.39.076.775.152 1.177.252.868.217 1.158.385 1.269.495.042.043.14.143.14.702 0 .274-.123.53-.44.751-.337.236-.881.415-1.593.415-.988 0-1.611-.4-2.002-.79-.2-.201-.342-.403-.431-.552-.045-.074-.075-.133-.092-.168l-.016-.035-.001-.001c-.208-.507-.786-.753-1.296-.549-.513.205-.763.787-.557 1.3v.002l.001.002.002.005.005.013c.004.009.01.02.015.034l.048.103c.04.083.098.193.176.323.154.257.392.597.732.937.693.693 1.803 1.376 3.416 1.376 1.02 0 1.993-.253 2.74-.776.766-.537 1.293-1.365 1.293-2.39 0-.742-.12-1.509-.726-2.116-.54-.54-1.333-.805-2.198-1.021-.457-.114-.904-.202-1.295-.278l-.249-.05c-.467-.092-.82-.172-1.095-.272-.272-.1-.377-.187-.42-.238-.025-.03-.084-.11-.084-.359 0-.447.184-.678.508-.855.39-.212.957-.311 1.526-.311.79 0 1.32.308 1.665.614.175.156.302.313.383.426.04.056.067.1.082.126.007.013.012.02.013.024.25.487.846.683 1.337.437.494-.247.694-.847.447-1.341V8.95l-.002-.002-.002-.005-.005-.01-.016-.03-.049-.086c-.04-.07-.098-.16-.173-.267-.15-.211-.375-.488-.687-.765-.631-.561-1.617-1.12-2.993-1.12z" />
</svg>
